config/includes.chroot/usr/share/icons/Tela-circle/scalable/apps/libreoffice-calc.svg

<svg width="64" height="64" version="1.1" viewBox="0 0 16.933 16.933" xmlns="http://www.w3.org/2000/svg" xmlns:xlink="http://www.w3.org/1999/xlink">
 <g>
  <circle cx="8.4665" cy="8.4665" r="7.1436" fill="#4caf50" style="paint-order:stroke fill markers"/>
  <path d="m9.8473 2.5466 4.5381 4.5381c-0.52723-2.2523-2.2858-4.0109-4.5381-4.5381z" fill="#fff" opacity=".5" stroke-width=".85185" style="paint-order:stroke fill markers"/>
  <path d="m8.1952 2.391c-3.2506 0.14506-5.812 2.8216-5.814 6.0755-1e-7 3.3608 2.7245 6.0853 6.0853 6.0853 3.2538-4e-3 5.9287-2.567 6.0719-5.8176z" fill="#fff" stroke-width=".85185" style="paint-order:stroke fill markers"/>
 </g>
 <path transform="scale(.26458)" d="m19 29v17.002h26v-17.002h-26zm2 2h5.998v3.002h-5.998v-3.002zm8 0h6v3.002h-6v-3.002zm8.002 0h5.998v3.002h-5.998v-3.002zm-16.002 5h5.998v3.002h-5.998v-3.002zm8 0h6v3.002h-6v-3.002zm8.002 0h5.998v3.002h-5.998v-3.002zm-16.002 5.002h5.998v3h-5.998v-3zm8 0h6v3h-6v-3zm8.002 0h5.998v3h-5.998v-3z" fill="#ccc" stroke-width="3.7796" style="paint-order:markers stroke fill"/>
</svg>

<svg xmlns="http://www.w3.org/2000/svg" width="64" height="64" viewBox="0 0 16.933 16.933"><circle cx="8.466" cy="8.466" r="7.144" fill="#4caf50" style="paint-order:stroke fill markers"/><path fill="#fff" d="m9.847 2.547 4.538 4.538a6.085 6.085 0 0 0-4.538-4.538z" opacity=".5" style="paint-order:stroke fill markers"/><path fill="#fff" d="M8.195 2.391a6.085 6.085 0 0 0-5.814 6.075 6.085 6.085 0 0 0 6.085 6.086 6.085 6.085 0 0 0 6.072-5.818z" style="paint-order:stroke fill markers"/><path fill="#ccc" d="M19 29v17.002h26V29H19zm2 2h5.998v3.002H21V31zm8 0h6v3.002h-6V31zm8.002 0H43v3.002h-5.998V31zM21 36h5.998v3.002H21V36zm8 0h6v3.002h-6V36zm8.002 0H43v3.002h-5.998V36zM21 41.002h5.998v3H21v-3zm8 0h6v3h-6v-3zm8.002 0H43v3h-5.998v-3z" style="paint-order:markers stroke fill" transform="scale(.26458)"/></svg>
